X: 30607
T: One Seventy Four
R: jig
M: 6/8
K: Dmajor
A|"D"F"d"D"d"D "D"F"d"G"d"A|"G"d"g"B/c/"g"d/B/ "D"A"d"B"d"G|"D"F"d"D"d"F "D"A"d"F"d"A|"G"B"g"G"g"B "A"c"a"A"a"c|
"D"d"d"c"d"d "G"e"g"f"g"g|"D"f"d"b"d"a "G"g"g"f"g"e|"D"f"d"e"d"d "A"A"a"d"a"c|"D"(d"d"d"d"d) "D"(dd):|
|:f/g/|"D"a"d"f"d"d "D"a"d"f"d"d|"G"g/f/"g"g/a/"g"b "D"a"d"f"d"d|"A"e"a"c"a"A "A"e"a"c"a"A|"D"d/c/"d"d/e/"d"f "A"e"a"c"a"A|
"D"d"d"c"d"d "D"A"d"B"d"G|"D"F"d"D"d"F "D"A"d"F"d"A|"G"B"g"G"g"B "A"c"a"A"a"c|"D"d"d"c"d"d "G"e"g"f"g"g|"D"f"d"e"d"d "A"A"a"d"a"c|"D"(d"d"d"d"d) "D"(dd):|

